**kern
*staff1
*I"P1
=1-
!!pagebreak:original
*clefG2
*k[b-]
*M2/4
bnq/
8cc/L
8d/J
4e/
=2
bnq/
8cc/L
8d/J
4e/
=3
bnq/
8cc/L
8d/J
8e/L
8dd/J
=4
8cc/L
16c/L
16d/JJ
4e/
=5
bnq/
8cc/L
8d/J
4e/
=6
bnq/
8cc/L
8d/J
8e/L
8dd/J
=7
16ee\LL
16ee\
16ee\
16ee\JJ
8ee\L
8aa\J
=8
4gg\
4ff\
*-
